X: 2408
T: Polska efter Olof Nordblad
S: efter Olof Nordblad
O: Norrala, Hälsingland
B: http://www.smus.se/earkiv/fmk/browselarge.php?lang=sw&katalogid=Hs+13&bildnr=00012
Z: Nils L
R: Slängpolska
M: 3/4
L: 1/8
K: Gm
GB/A/ G2 d2 | cd cB AG | GB/A/ G2 d2 | cd cB AG | GB     GB GB  |
^FA   FA FA | GB GB GB | ^FA   FA FA | GB Ad cB | AG/^F/ G4    ::
ba/g/ f2 f2 | gf ed cB | ba/g/ f2 f2 | gf ed cB | GB     GB GB  |
^FA   FA FA | GB GB GB | ^FA   FA FA | GB Ad cB | AG/^F/ G4    :|
(:musicend:)
(:music:)
